X: 344
T: 345. O Haupt voll Blut und Wunden
N: Derived from chor345.krn
C: Johann Sebastian Bach
%%abc-version 2.0
%%abcx-abcm2ps-target-version 5.9.1 (29 Sep 2008)
%%abc-creator hum2abc beta
%%abcx-conversion-date 2019/03/11 17:28:19
%%abc-edited-by Craig Stuart Sapp
%%humdrum-veritas 2773422338
%%humdrum-veritas-data 3998938782
%%
%%barnumbers 0
L: 1/4
M: C
%%staves [1 2 3 4]
V: 1 clef=treble
V: 2 clef=treble
V: 3 clef=treble-8
V: 4 clef=bass
K: C
[V:1] E [I:setbarnb 1]| 
[V:2] E/D/ | 
[V:3] ^G | 
[V:4] E, | 
[V:1] AGFE | 
[V:2] C/D/ D/E/ E/D/ D/C/ | 
[V:3] ABc/d/G | 
[V:4] F,=G,A,,/B,,/C, | 
[V:1] D2!fermata!EB | 
[V:2] CB,/A,/!fermata!B,E | 
[V:3] A/^G/A!fermata!^G^G | 
[V:4] F,,2!fermata!E,,E, | 
[V:1] ccB/c//d//B | 
[V:2] EAA^G | 
[V:3] A/B/cfe/d/ | 
[V:4] A,/=G,/ F,/E,/ D,/B,,/ E,/E,,/ | 
[V:1] !fermata!A3 :|]  
[V:2] !fermata!C3 :|]  
[V:3] !fermata!c3 :|]  
[V:4] !fermata!A,,3 :|]  
[V:1] c [I:setbarnb 5]| 
[V:2] A/=G/ | 
[V:3] e | 
[V:4] A, | 
[V:1] B/A/GAB | 
[V:2] FE/D/CF | 
[V:3] d/c/BA/G/ F/G/ | 
[V:4] D,E,F,/E,/D, | 
[V:1] c2!fermata!cG | 
[V:2] FE/D/!fermata!EE | 
[V:3] AG/F/!fermata!Gc | 
[V:4] A,,/B,,/C,!fermata!C,,C, | 
[V:1] AGF/E/F | 
[V:2] F_B,/A,/ A,/G,/ A,/D/ | 
[V:3] c/d/ed/^c/ d/^G/ | 
[V:4] F,/E,/ D,/^C,/D,D, | 
[V:1] !fermata!E3c | 
[V:2] !fermata!^C3D | 
[V:3] !fermata!A3A | 
[V:4] !fermata!A,,3^F,, | 
[V:1] B/c/dcB | 
[V:2] DGG/^F/G | 
[V:3] G/A/Bc/d/e | 
[V:4] G,,G,/^F,/E,3/D,/ | 
[V:1] A2!fermata!BE | 
[V:2] G^F!fermata!GG | 
[V:3] ed!fermata!dc | 
[V:4] C,/A,,/D,!fermata!G,,C,/B,,/ | 
[V:1] FEDG/F/ | 
[V:2] C/D/CF,D | 
[V:3] c/B/ B/A/AG/A/ | 
[V:4] A,,/B,,/C,-C,/B,,/- B,,/A,,/ | 
[V:1] !fermata!E3 |]  
[V:2] DC!fermata!B, |]  
[V:3] BA!fermata!^G |]  
[V:4] ^G,,A,,!fermata!E,, |]  



